dist/svgs/unicons/line/auto-flash.svg

<svg xmlns="http://www.w3.org/2000/svg" viewBox="0 0 24 24"><path d="M17.87 8.6A1 1 0 0017 8h-4.58l1.27-4.74a1 1 0 00-.17-.87 1 1 0 00-.8-.39h-7a1 1 0 00-1 .74l-2.68 10a1 1 0 001 1.26h3.85l-1.81 6.74a1 1 0 001.71.93l10.9-12a1 1 0 00.18-1.07zm-9.79 8.68l1.08-4a1 1 0 00-.16-.89 1 1 0 00-.81-.39H4.35l2.14-8h4.93l-1.27 4.74a1 1 0 001 1.26h3.57zM19 13h-1a3 3 0 00-3 3v5a1 1 0 002 0v-2h3v2a1 1 0 002 0v-5a3 3 0 00-3-3zm1 4h-3v-1a1 1 0 011-1h1a1 1 0 011 1z"/></svg>

<svg xmlns="http://www.w3.org/2000/svg" viewBox="0 0 24 24"><path d="M17.87,8.6A1,1,0,0,0,17,8H12.42l1.27-4.74a1,1,0,0,0-.17-.87,1,1,0,0,0-.8-.39h-7a1,1,0,0,0-1,.74l-2.68,10a1,1,0,0,0,1,1.26H6.89L5.08,20.74a1,1,0,0,0,1.71.93l10.9-12A1,1,0,0,0,17.87,8.6ZM8.08,17.28l1.08-4A1,1,0,0,0,9,12.39,1,1,0,0,0,8.19,12H4.35L6.49,4h4.93L10.15,8.74a1,1,0,0,0,1,1.26h3.57ZM19,13H18a3,3,0,0,0-3,3v5a1,1,0,0,0,2,0V19h3v2a1,1,0,0,0,2,0V16A3,3,0,0,0,19,13Zm1,4H17V16a1,1,0,0,1,1-1h1a1,1,0,0,1,1,1Z"/></svg>
